icon-themes/breeze_svg/cmd/lc_executereport.svg

<svg viewBox="0 0 24 24" xmlns="http://www.w3.org/2000/svg"><path d="m5 4v16h1 3 5 1l4-4v-1-.40625-7.59375-2-1h-1-9-3zm1 1h3 9v2 7 1h-4v1 3h-5-3zm1 2v4h4v-4zm5 0v1h5v-1zm-4 1h2v2h-2zm4 2v1h5v-1zm-5 3v1h10v-1zm0 3v1h6v-1z" fill="#4d4d4d"/></svg>

<svg xmlns="http://www.w3.org/2000/svg" viewBox="0 0 24 24">
 <path 
     style="fill:#4d4d4d" 
     d="M 5 4 L 5 20 L 6 20 L 9 20 L 14 20 L 15 20 L 19 16 L 19 15 L 19 14.59375 L 19 7 L 19 5 L 19 4 L 18 4 L 9 4 L 6 4 L 5 4 z M 6 5 L 9 5 L 18 5 L 18 7 L 18 14 L 18 15 L 14 15 L 14 16 L 14 19 L 9 19 L 6 19 L 6 5 z M 7 7 L 7 11 L 11 11 L 11 7 L 7 7 z M 12 7 L 12 8 L 17 8 L 17 7 L 12 7 z M 8 8 L 10 8 L 10 10 L 8 10 L 8 8 z M 12 10 L 12 11 L 17 11 L 17 10 L 12 10 z M 7 13 L 7 14 L 17 14 L 17 13 L 7 13 z M 7 16 L 7 17 L 13 17 L 13 16 L 7 16 z "
     />
 </svg>
